!!!!SEGMENT: 007-1-W-004.krn
!!!COM: Chopin, Fryderyk
!!!NIFC-ComViaf:71319254
!!!OTL:Mazurka No. 4.
!!!AFR:mazurka
!!!OPS:Op. 7
!!!PTL:Second Set of Mazurkas
!!!PPR: Wessel
!!!PPP: London
!!!AGN: Mazurka
!!!NIFC-rismID: 1001009137
!!!NIFC-shelfmark: PL-Wbfc 3669/n
!!!OMD: PRESTO MA NON TROPPO.
!!!OMD: [half] = 63.
!!!SIC: Above tempo marking is missing an augmentation dot on the half-note.
**kern	**kern	**dynam
*part1	*part1	*part1
*staff2	*staff1	*
*>[A,B,B,C,D,E]	*>[A,B,B,C,D,E]	*
*clefF4	*clefG2	*
*k[b-e-a-d-]	*k[b-e-a-d-]	*
*A-:	*A-:	*
*M3/4	*M3/4	*
*MM189	*MM189	*
8r	8e-	.
=1	=1	=1
*>A	*>A	*>A
!LO:TX:b:i:t=Legato.	!	!
(4e- 4A-	(12a-L	f
.	12b-	.
.	12a-J)	.
4f-X^< 4d- 4A-	(8gL	.
.	8a-	.
4f- 4d- 4A-	8b-	.
.	8ccJ)	.
=2	=2	=2
4f-X^< 4B- 4G	(12dd-L	.
.	12ee-	.
.	12dd-J)	.
4e- 4c 4A-	(8ccL	<
.	8dd-J	.
4e- 4B- 4G	(4ee-)	[
=3	=3	=3
8fn 8d- 8A- 8F)	8aa-`L)	fz
8r	16r	.
.	(16dd-Jk	p
(4e- 4A- 4E-	8ccL	.
.	8ee-	.
4e- 4c 4E-	8a-	.
.	8anJ)	.
=4	=4	=4
4e- 4d- 4E-	(<8b-L	.
.	8dd-	.
4e- 4d- 4E-	8f	.
.	8gJ)	.
4e-^ 4c 4A-)	[4a-X^>	.
=5	=5	=5
4e- 4c 4A-	(<12a-L]	f
.	12b-	.
.	12a-J)	.
4f-X^< 4d- 4A-	(8gL	.
.	8a-	<
(4f- 4d- 4A-	8b-	.
.	8ccJ)	[
=6	=6	=6
4f-X^< 4B- 4G	(>12dd-L^<	.
.	12ee-	.
.	>12dd-J)	.
4e- 4c 4A-	(8ccL	.
.	8dd-	.
4e- 4B- 4G	8ddn	.
.	8ee-J)	.
=7	=7	=7
.	(<16qqee-/	.
8fn 8d- 8A- 8F)	8aa-`L)	.
8r	16r	.
.	(16dd-Jk	p
(4e- 4A- 4E-	8ccL	.
.	8ee-	.
4e- 4c 4E-	8a-	.
.	8anJ)	.
=8	=8	=8
4e- 4d- 4E-	(8b-\L	.
.	8dd-	.
4e- 4d- 4E-	8f	.
.	8gJ	.
4e- 4c 4A-)	8a-)	.
.	16r	.
.	16bn/	.
=9!|:	=9!|:	=9!|:
*>B	*>B	*>B
*ped	*	*
!	!LO:TX:b:i:t=Scherz.	!
4C	(>4cc	.
(4en 4c 4G	8ccc`L)	.
.	16r	.
.	(16bb-Jk	.
*Xped	*	*
4f 4c 4F	[4aa-^<)	.
=10	=10	=10
4f 4Bn 4G	8aa-L]	.
.	8gg	.
.	16qqbb-/	.
4f 4B 4G	(>8aa-	.
.	8ggJ)	.
4f 4B 4G	(4ddn^	.
=11	=11	=11
4e-' 4c 4A-)	8cc`L)	.
.	(>8cc	.
(4en 4c 4G	8ccc)	.
.	16r	.
.	(16bb-Jk	.
4f 4c 4F	[4aa-^<)	.
=12	=12	=12
4f 4Bn 4G	8aa-L]	.
.	8gg	.
.	(<16qqbb-/	.
4f 4B 4G	8aa-`)	.
.	16r	.
.	(>16ggJk	.
4f 4B 4G)	4ddn)^<	.
=13	=13	=13
(>4e- 4c 4A-	4cc	p
4d-X^< 4A- 4F	8.dd-X^L	.
.	16ffJk	.
4dn 4A- 4F	4cc^<	.
=14	=14	=14
4f 4dn 4G	8bn\L	.
.	16r	.
.	(16gk	.
4f 4d 4G	8b	.
.	8ddnJ)	.
4e- 4c	[4cc^	.
=15	=15	=15
4e- 4c 4A-)	4cc]	.
(4d-X^< 4A- 4F	8.dd-X^L	.
.	(>16ffJk	.
4dn 4A- 4F	[4cc^)	<
.	.	[
=16	=16	=16
*	*	*^
4dn 4B- 4G)	4.cc]	<	<
*	*	*v	*v
.	.	.
4e- 4B- 4G	.	.
.	8b-L	.
(4f-X 4d-X 4G	8.cc^	.
.	16b-Jk	[
=17	=17	=17
4e- 4c 4A-)	(12a-L	f
.	12b-	.
.	12a-J)	.
4f-X^< 4d- 4A-	(8gL	<
.	8a-	.
4f- 4d- 4A-	8b-	.
.	8ccJ)	[
=18	=18	=18
(4f-X^< 4B- 4G	(12dd-L^<	.
.	12ee-	.
.	12dd-J)	.
4e- 4c 4A-	(>8ccL	.
.	8dd-J)	.
4e- 4B- 4G	(4ee-^<	.
=19	=19	=19
8fn 8d- 8A- 8F)	8aa-`L)	fz
8r	16r	.
.	(>16dd-Jk	p
(4e- 4A- 4E-	8ccL)	.
.	(8ee-	.
4e- 4c 4E-	8a-	.
.	8anJ	.
=20	=20	=20
4e- 4d- 4E-	8b-\L	.
.	8dd-	.
4e- 4d- 4E-	8f	.
.	8gJ)	.
4e- 4c 4A-)	[>\4a-^>	.
=21	=21	=21
(4e- 4c 4A-	(>\12a-L]	f
.	12b-	.
.	12a-J)	.
4f-X^< 4d- 4A-	8g\L	.
.	16r	.
.	(16a-k	.
4f- 4d- 4A-	8b-	.
.	8ccJ)	.
=22	=22	=22
4f-X^< 4B- 4G	(>12dd-L	.
.	12ee-	.
.	12dd-J)	.
4e- 4c 4A-	8cc'L	.
.	16r	.
.	(16dd-k	.
.	16qqdd-/	.
4e- 4B- 4G	8ddn	.
.	8ee-J	.
=23	=23	=23
.	16qqee-/	.
8fn 8d- 8A- 8F)	8aa-`L)	.
8r	16r	.
.	(16dd-Jk	p
(4e- 4A- 4E-	8ccL)	.
.	(8ee-	.
4e- 4c 4E-	8a-	.
.	8anJ	.
=24	=24	=24
4e- 4d- 4E-	8b-\L	.
.	8dd-	.
4e- 4d- 4E-	8f	.
.	8gJ)	.
4e- 4c 4A-)	4a-^\	.
=25:|!	=25:|!	=25:|!
*>C	*>C	*>C
*	*^	*
!LO:TX:a:i:t=Dolcissimo.	!	!	!
4c 4A- 4D-	(>8gg-XL	4g-X	.
.	8ff	.	.
4c 4A- 4D-	8ee-	4g-	.
.	8ffJ	.	.
4d-^ 4A- 4D-	4dd-	4f	.
=26	=26	=26	=26
4e- 4B- 4D-	8b-L	4gn	.
.	8ee-	.	.
4e- 4An 4D-	8b-	4g-X	.
.	8ccJ	.	.
4e-^ 4A-X 4D-	4a-	4g-)	.
=27	=27	=27	=27
4c 4A- 4D-	(>8gg-XL	4g-X	.
.	8ff	.	.
4c 4A- 4D-	8ee-	4g-	.
.	8ffJ	.	.
4d-^ 4A- 4D-	4dd-	4f	.
=28	=28	=28	=28
4e- 4B- 4D-	8b-L	4gn	.
.	8ee-	.	.
4e- 4A- 4D-	8a-	4g-X	.
.	8ccJ)	.	.
4d-^ 4A- 4D-	(4dd-	4f	.
=29	=29	=29	=29
!LO:TX:b:i:t=Sempre Legato.	!LO:TX:a:i:t=Staccato.	!LO:TX:b:i:t=Ritenuto.	!
4c 4A- 4D-	8gg-X'L	4g-X	p
.	8ff'	.	.
4c 4A- 4D-	8ee-'	4g-	.
.	8ff'	.	.
4d- 4A- 4D-	8dd-'	4f	.
.	8a-'J	.	.
=30	=30	=30	=30
4e- 4B- 4D-	8b-'L	4gn	.
.	8ee-'	.	.
4e- 4An 4D-	8b-'	4g-X	.
.	8cc'	.	.
4e- 4A-X 4D-	8a-'	4g-	.
.	8aa-'J	.	.
=31	=31	=31	=31
4c 4A- 4D-	8gg-X'L	4g-X	.
.	8ff'	.	.
4c 4A- 4D-	8ee-'	4g-	.
.	8ff'	.	.
4d- 4A- 4D-	8dd-'	4f	.
.	8a-'J	.	.
=32	=32	=32	=32
4e- 4B- 4D-	8b-'L	4gn	.
.	8ee-'	.	.
4e- 4A- 4D-	8a-'	4g-X	.
.	8cc'J	.	.
4A- 4D-	4dd-)	4f	.
=33||	=33||	=33||	=33||
*>D	*>D	*>D	*>D
*ped	*	*	*
!LO:TX:a:i:t=Sotto Voce.	!	!LO:TX:a:i:t=Molto Rall.	!
2An 2AAn	(8eenL 8cc#X	2en	pp
.	8ddnJ 8bn	.	.
.	4cc# 4an)	.	.
*Xped	*	*	*
4A 4Dn	(>4ff#X^>/ 4a/ 4f#X/	4ryy	.
=34	=34	=34	=34
*ped	*	*	*
2.An^ 2.AAn	2een 2cc#X	2.en	.
.	4cc# 4an)	.	.
=35	=35	=35	=35
2An	(8eenL 8cc#X	2en	.
!	!LO:TX:b:i:t=Smorz.	!	!
.	8ddnJ 8bn	.	.
.	4cc# 4an)	.	.
*Xped	*	*	*
4A 4Dn	4ff#X:/ 4a:/ 4f#X:/	4ryy	.
=36	=36	=36	=36
*	*	*^	*
2An; 2AAn	2.een	2cc#X/;> 2an/	2.en\	.
(4d-X^< 4G	.	4b-X^>	.	.
*	*v	*v	*v	*
=37||	=37||	=37||
*>E	*>E	*>E
!	!LO:TX:a:Bi:t=A Tempo.	!
4e- 4c 4A-	(<12a-L	f
.	12b-	.
.	12a-J)	.
4f-X 4d- 4A-	(8gL	.
.	8a-	.
4f- 4d- 4A-	8b-	.
.	8ccJ)	.
=38	=38	=38
4f-X 4B- 4G	(12dd-L	.
.	12ee-	.
.	12dd-J)	.
4e- 4c 4A-	(8ccL	.
.	8dd-J)	.
4e- 4B- 4G	4ee-^	.
=39	=39	=39
8fn` 8d- 8A- 8F)	8aa-`L	fz
8r	16r	.
.	(>16dd-Jk	p
(4e- 4A- 4E-	8ccL	.
.	8ee-	.
4e- 4c 4E-	8a-	.
.	8anJ	.
=40	=40	=40
4e- 4d- 4E-	8b-L	.
.	8dd-	.
4e- 4d- 4E-	8f	.
.	8gJ	.
4e- 4c 4A-)	[4a-X^<)	.
=41	=41	=41
(<4e- 4c 4A-	(<12a-L]	f
.	12b-	.
.	12a-J)	.
4f-X 4d- 4A-	(8gL	<
.	8a-	.
4f- 4d- 4A-	8b-	.
.	8ccJ)	[
=42	=42	=42
(4f-X 4B- 4G	(12dd-^<L	.
.	12ee-	.
.	>12dd-J)	.
4e- 4c 4A-)	(8cc'L	<
.	16r	.
.	16dd-k	.
.	16qqdd-/	.
4e- 4B- 4G	8ddn	.
.	8ee-J)	[
=43	=43	=43
.	(<16qqee-/	.
8fn` 8d- 8A- 8F)	8aa-`)	fz
16r;	16r;	.
16ryy	(16dd-X	f
(4e- 4A- 4E-	8ccL	.
.	8ee-	.
4e- 4c 4E-	8a-	.
.	8anJ	.
=44	=44	=44
4e- 4d- 4E-	8b-\L	.
.	8dd-	.
4e- 4d- 4E-	8f	.
.	8gJ	.
!LO:TX:b:Bi:t=FINE.	!	!
4e- 4c 4A-)	4a-\)	.
==	==	==
*-	*-	*-
!!title: @{OTL}; @{OPS} @{ONM} publisher: @{PPR}
!!!RDF**dynam: < = "Cres.",fontstyle="italic"
!!!RDF**dynam: > = "Dim.",fontstyle="italic"
!!!RDF**kern: > = above
!!!RDF**kern: < = below
!!!ENC: Jacek Iwaszko
!!!END: 2017-08-11
!!!EED: Tomasz Sierawski
!!!EST: revision finished 2019-01-03
!!!rism-genre: Mazurka
!!!rism-key: A-flat major
!!!rism-opus: op.  7, no. 4
!!!rism-title: Mazurka in A-flat major op.  7, no. 4
!!!rism-permalink: https://opac.rism.info/search?id=1001009137&View=rism
!!!rism-773a-OPR: 1001009131
!!!rism-parent-permalink: https://opac.rism.info/search?id=1001009131&View=rism
